X:163 
T:Paddy's Choice* (reel)
F:file ID: cre.5/163pad_c
B:CRE5.194 (gan ainm)
M:4/4
Q:180
R:reel
K:G
"A dorian"
(3Bcd|e2dB eA (3ABA|eaaf gfed|e2dg eBdB|GFGA BABd|
e2dg eA (3ABA|eaaf gfed|e2dg eBdB|GFGA BABd||
eaa/b/a bagb|aAAB cBcd|egaf gbaf|gGGA BABd|
eaa/ba bagb|aAAB cBcd|egaf gbaf|gfgd BGBd|]
"last time"[A8c8e8]|]

%%%

